svg/device/game_1_line.svg

<?xml version="1.0" encoding="UTF-8"?>
<svg width="24px" height="24px" viewBox="0 0 24 24" version="1.1" xmlns="http://www.w3.org/2000/svg" xmlns:xlink="http://www.w3.org/1999/xlink">
    <title>game_1_line</title>
    <g id="页面-1" stroke="none" stroke-width="1" fill="none" fill-rule="evenodd">
        <g id="Device" transform="translate(-432.000000, 0.000000)" fill-rule="nonzero">
            <g id="game_1_line" transform="translate(432.000000, 0.000000)">
                 <path d="M24,0 L24,24 L0,24 L0,0 L24,0 Z M12.5934901,23.257841 L12.5819402,23.2595131 L12.5108777,23.2950439 L12.4918791,23.2987469 L12.4918791,23.2987469 L12.4767152,23.2950439 L12.4056548,23.2595131 C12.3958229,23.2563662 12.3870493,23.2590235 12.3821421,23.2649074 L12.3780323,23.275831 L12.360941,23.7031097 L12.3658947,23.7234994 L12.3769048,23.7357139 L12.4804777,23.8096931 L12.4953491,23.8136134 L12.4953491,23.8136134 L12.5071152,23.8096931 L12.6106902,23.7357139 L12.6232938,23.7196733 L12.6232938,23.7196733 L12.6266527,23.7031097 L12.609561,23.275831 C12.6075724,23.2657013 12.6010112,23.2592993 12.5934901,23.257841 L12.5934901,23.257841 Z M12.8583906,23.1452862 L12.8445485,23.1473072 L12.6598443,23.2396597 L12.6498822,23.2499052 L12.6498822,23.2499052 L12.6471943,23.2611114 L12.6650943,23.6906389 L12.6699349,23.7034178 L12.6699349,23.7034178 L12.678386,23.7104931 L12.8793402,23.8032389 C12.8914285,23.8068999 12.9022333,23.8029875 12.9078286,23.7952264 L12.9118235,23.7811639 L12.8776777,23.1665331 C12.8752882,23.1545897 12.8674102,23.1470016 12.8583906,23.1452862 L12.8583906,23.1452862 Z M12.1430473,23.1473072 C12.1332178,23.1423925 12.1221763,23.1452606 12.1156365,23.1525954 L12.1099173,23.1665331 L12.0757714,23.7811639 C12.0751323,23.7926639 12.0828099,23.8018602 12.0926481,23.8045676 L12.108256,23.8032389 L12.3092106,23.7104931 L12.3186497,23.7024347 L12.3186497,23.7024347 L12.3225043,23.6906389 L12.340401,23.2611114 L12.337245,23.2485176 L12.337245,23.2485176 L12.3277531,23.2396597 L12.1430473,23.1473072 Z" id="MingCute" fill-rule="nonzero"></path>
                <path d="M12,3 C12.5523,3 13,3.44772 13,4 L13,5 L14.5,5 C18.6421,5 22,8.35786 22,12.5 C22,16.6421 18.6421,20 14.5,20 L9.5,20 C5.35786,20 2,16.6421 2,12.5 C2,8.35786 5.35786,5 9.5,5 L11,5 L11,4 C11,3.44772 11.4477,3 12,3 Z M14.5,7 L9.5,7 C6.46243,7 4,9.46243 4,12.5 C4,15.5376 6.46243,18 9.5,18 L14.5,18 C17.5376,18 20,15.5376 20,12.5 C20,9.46243 17.5376,7 14.5,7 Z M15.5,10 C16.01285,10 16.4355092,10.386027 16.4932725,10.8833761 L16.5,11 L16.5,11.5 L17,11.5 C17.5523,11.5 18,11.9477 18,12.5 C18,13.01285 17.613973,13.4355092 17.1166239,13.4932725 L17,13.5 L16.5,13.5 L16.5,14 C16.5,14.5523 16.0523,15 15.5,15 C14.98715,15 14.5644908,14.613973 14.5067275,14.1166239 L14.5,14 L14.5,13.5 L14,13.5 C13.4477,13.5 13,13.0523 13,12.5 C13,11.98715 13.386027,11.5644908 13.8833761,11.5067275 L14,11.5 L14.5,11.5 L14.5,11 C14.5,10.4477 14.9477,10 15.5,10 Z M8.5,10 C9.88071,10 11,11.1193 11,12.5 C11,13.8807 9.88071,15 8.5,15 C7.11929,15 6,13.8807 6,12.5 C6,11.1193 7.11929,10 8.5,10 Z M8.5,12 C8.22386,12 8,12.2239 8,12.5 C8,12.7761 8.22386,13 8.5,13 C8.77614,13 9,12.7761 9,12.5 C9,12.2239 8.77614,12 8.5,12 Z" id="形状" fill="#09244B"></path>
            </g>
        </g>
    </g>
</svg>

<svg xmlns="http://www.w3.org/2000/svg" width="24" height="24"><g fill="none" fill-rule="nonzero"><path d="M24 0v24H0V0h24ZM12.593 23.258l-.011.002-.071.035-.02.004-.014-.004-.071-.035c-.01-.004-.019-.001-.024.005l-.004.01-.017.428.005.02.01.013.104.074.015.004.012-.004.104-.074.012-.016.004-.017-.017-.427c-.002-.01-.009-.017-.017-.018Zm.265-.113-.013.002-.185.093-.01.01-.003.011.018.43.005.012.008.007.201.093c.012.004.023 0 .029-.008l.004-.014-.034-.614c-.003-.012-.01-.02-.02-.022Zm-.715.002a.023.023 0 0 0-.027.006l-.006.014-.034.614c0 .012.007.02.017.024l.015-.002.201-.093.01-.008.004-.011.017-.43-.003-.012-.01-.01-.184-.092Z"/><path fill="#09244B" d="M12 3a1 1 0 0 1 1 1v1h1.5a7.5 7.5 0 0 1 0 15h-5a7.5 7.5 0 0 1 0-15H11V4a1 1 0 0 1 1-1Zm2.5 4h-5a5.5 5.5 0 1 0 0 11h5a5.5 5.5 0 1 0 0-11Zm1 3a1 1 0 0 1 .993.883L16.5 11v.5h.5a1 1 0 0 1 .117 1.993L17 13.5h-.5v.5a1 1 0 0 1-1.993.117L14.5 14v-.5H14a1 1 0 0 1-.117-1.993L14 11.5h.5V11a1 1 0 0 1 1-1Zm-7 0a2.5 2.5 0 1 1 0 5 2.5 2.5 0 0 1 0-5Zm0 2a.5.5 0 1 0 0 1 .5.5 0 0 0 0-1Z"/></g></svg>
